X:660
T:The Scotch Measure
M:2/2
L:1/8
C:Thomas Bray's Country Dances 1699
C:from Amphitryon by Henry Purcell
S:Colin Hume's website,  colinhume.com  - chords can also be printed below the stave.
Q:1/2=76   - with poise
K:F
P:A
|: "F"F3A (FA)(cA) | "F"F2f2 "Bb"d3e | "Bb"(fd)(fd) "F"(cA)(cA) | "C"G2"G"g2 "C"e3e |\
"F"f3g (ga)(gf) | "Gm"(ab)(ag) "F"c3f | "Bb"(df)(ba) "C"(ge)(ce) | "F"f2a2 f4 :|
P:B
|: "F"c'2a2 (fa)(ba) | "C"g2e2 (ce)(fe) | "Dm"(fd)(cB) "F"(Ac)(dc) | "Gm"d2g2 "C"e3e |\
"C"(eg)(ag) "Gm"(ab)(ag) | "Bb"(df)(gf) "F"(ga)(gf) | "F"(cd)"Bb"(_ed) "C"(cA)(cG) | "F"A2F2 F4 :|

